X: 32675
T: Polar Bear, The
R: jig
M: 6/8
K: Gmajor
D|:GFG BGB|d^cd g2B|cee Bdd|ABc E2 (3E/F/E/|DFA DFA|
f2f fg/f/e|1 d^cd edc|{A}B3 Bc/B/A:|2 d^cd bfa|g3 g2 (3E/F/E/||
K: Dmaj
|:DFA dfa|(3g/a/g/ fe B2c|cee ABc|dcd ABA|
DFA dfa|(3g/a/g/ fe B2c|cee ABc|1 d3 d3:|2 d3 d2A||

